data/styles/clear/style-clear/symbols/garden_center-m.svg

<svg height="24" viewBox="0 0 24 24" width="24"><g fill="none" fill-rule="evenodd"><circle cx="12" cy="12" fill="#fff" opacity=".6" r="12"/><circle cx="12" cy="12" fill="#8c5f93" r="11"/><path d="m13.0176697 9.4776c.7926908-.776 1.8956003-1.0584 2.9144243-.8504.2130713 1-.0751056 2.0816-.86698 2.8568s-1.8956003 1.0584-2.9152407.8504c-.2130713-1 .075922-2.0816.8677964-2.8568zm-1.8074329 2.7864c.1771513-.8312-.0636765-1.7328-.724116-2.38-.65880687-.6472-1.57966698-.8832-2.43031967-.7096-.17633491.8328.06530923 1.7336.72411607 2.3808.66043956.6472 1.5788506.8824 2.4303196.7088zm-3.2102368 1.896c0 .3536.31189674.64.69697595.64h.39814751l.4983378 3.2h4.35609964l.6220511-3.2h.3981475c.3850792 0 .6969759-.2856.6969759-.64v-.96h-7.6667354zm3.6739323-8.16c-.6759505 0-1.224548.5376-1.224548 1.2s.5485975 1.2 1.224548 1.2c.6759506 0 1.2245481-.5376 1.2245481-1.2s-.5485975-1.2-1.2245481-1.2z" fill="#fff"/></g></svg>

<svg width="24" height="24" viewBox="0 0 24 24">
  <g fill="none" fill-rule="evenodd">
    <circle cx="12" cy="12" r="12" fill="#FFF" opacity=".6"/>
    <circle cx="12" cy="12" r="11" fill="#8C5F93"/>
    <path fill="#FFF" d="M13.0176697,9.4776 C13.8103605,8.7016 14.91327,8.4192 15.932094,8.6272 C16.1451653,9.6272 15.8569884,10.7088 15.065114,11.484 C14.2732396,12.2592 13.1695137,12.5424 12.1498733,12.3344 C11.936802,11.3344 12.2257953,10.2528 13.0176697,9.4776 L13.0176697,9.4776 Z M11.2102368,12.264 C11.3873881,11.4328 11.1465603,10.5312 10.4861208,9.884 C9.82731393,9.2368 8.90645382,9.0008 8.05580113,9.1744 C7.87946622,10.0072 8.12111036,10.908 8.7799172,11.5552 C9.44035676,12.2024 10.3587678,12.4376 11.2102368,12.264 L11.2102368,12.264 Z M8,14.16 C8,14.5136 8.31189674,14.8 8.69697595,14.8 L9.09512346,14.8 L9.59346126,18 L13.9495609,18 L14.571612,14.8 L14.9697595,14.8 C15.3548387,14.8 15.6667354,14.5144 15.6667354,14.16 L15.6667354,13.2 L8,13.2 L8,14.16 L8,14.16 Z M11.6739323,6 C10.9979818,6 10.4493843,6.5376 10.4493843,7.2 C10.4493843,7.8624 10.9979818,8.4 11.6739323,8.4 C12.3498829,8.4 12.8984804,7.8624 12.8984804,7.2 C12.8984804,6.5376 12.3498829,6 11.6739323,6 L11.6739323,6 Z"/>
  </g>
</svg>
